resources/svg/mail-forbid-fill.svg

<svg fill="currentColor" viewBox="0 0 24 24" xmlns="http://www.w3.org/2000/svg"><path d="M15.2657 11.5541L19.6544 7.75616L18.3456 6.24384L12.0606 11.6829L5.64722 6.2377L4.35278 7.7623L12.0554 14.3021C11.3865 15.3751 11 16.6424 11 18C11 19.0736 11.2417 20.0907 11.6736 21H3C2.44772 21 2 20.5523 2 20V4C2 3.44772 2.44772 3 3 3H21C21.5523 3 22 3.44772 22 4V12.2547C20.8662 11.4638 19.4872 11 18 11C17.0298 11 16.1057 11.1974 15.2657 11.5541ZM16.7066 20.7076C17.0982 20.895 17.5369 21 18 21C19.6569 21 21 19.6569 21 18C21 17.5369 20.895 17.0982 20.7076 16.7066L16.7066 20.7076ZM15.2924 19.2934L19.2934 15.2924C18.9018 15.105 18.4631 15 18 15C16.3431 15 15 16.3431 15 18C15 18.4631 15.105 18.9018 15.2924 19.2934ZM18 23C15.2386 23 13 20.7614 13 18C13 15.2386 15.2386 13 18 13C20.7614 13 23 15.2386 23 18C23 20.7614 20.7614 23 18 23Z"/></svg>

<svg xmlns="http://www.w3.org/2000/svg" viewBox="0 0 24 24" fill="currentColor">
    <g>
        <path fill="none" d="M0 0h24v24H0z"/>
        <path d="M15.266 11.554l4.388-3.798-1.308-1.512-6.285 5.439-6.414-5.445-1.294 1.524 7.702 6.54A6.967 6.967 0 0 0 11 18c0 1.074.242 2.09.674 3H3a1 1 0 0 1-1-1V4a1 1 0 0 1 1-1h18a1 1 0 0 1 1 1v8.255A6.968 6.968 0 0 0 18 11c-.97 0-1.894.197-2.734.554zm1.44 9.154a3 3 0 0 0 4.001-4.001l-4 4zm-1.414-1.415l4.001-4a3 3 0 0 0-4.001 4.001zM18 23a5 5 0 1 1 0-10 5 5 0 0 1 0 10z"/>
    </g>
</svg>
